img/footer-location.svg

<svg width="20" height="20" viewBox="0 0 20 20" fill="none" xmlns="http://www.w3.org/2000/svg">
<path d="M17.9167 20H4.58333C3.43417 20 2.5 19.065 2.5 17.9167V12.9167C2.5 12.6867 2.68667 12.5 2.91667 12.5C3.14667 12.5 3.33333 12.6867 3.33333 12.9167V17.9167C3.33333 18.6058 3.89417 19.1667 4.58333 19.1667H17.9167C18.6058 19.1667 19.1667 18.6058 19.1667 17.9167V4.58333C19.1667 3.89417 18.6058 3.33333 17.9167 3.33333H10.4167C10.1867 3.33333 10 3.14667 10 2.91667C10 2.68667 10.1867 2.5 10.4167 2.5H17.9167C19.0658 2.5 20 3.435 20 4.58333V17.9167C20 19.065 19.0658 20 17.9167 20Z" fill="#101315"/>
<path d="M15.8346 8.33333C14.9155 8.33333 14.168 7.58583 14.168 6.66666C14.168 5.7475 14.9155 5 15.8346 5C16.7538 5 17.5013 5.7475 17.5013 6.66666C17.5013 7.58583 16.7538 8.33333 15.8346 8.33333ZM15.8346 5.83333C15.3746 5.83333 15.0013 6.2075 15.0013 6.66666C15.0013 7.12583 15.3746 7.49999 15.8346 7.49999C16.2946 7.49999 16.668 7.12583 16.668 6.66666C16.668 6.2075 16.2946 5.83333 15.8346 5.83333Z" fill="#101315"/>
<path d="M10.8346 17.4993C9.91547 17.4993 9.16797 16.7518 9.16797 15.8327C9.16797 14.9135 9.91547 14.166 10.8346 14.166C11.7538 14.166 12.5013 14.9135 12.5013 15.8327C12.5013 16.7518 11.7538 17.4993 10.8346 17.4993ZM10.8346 14.9993C10.3746 14.9993 10.0013 15.3735 10.0013 15.8327C10.0013 16.2918 10.3746 16.666 10.8346 16.666C11.2946 16.666 11.668 16.2918 11.668 15.8327C11.668 15.3735 11.2946 14.9993 10.8346 14.9993Z" fill="#101315"/>
<path d="M4.16667 10.8333C4.07167 10.8333 3.97583 10.8008 3.89833 10.735C3.73833 10.6008 0 7.41167 0 4.16667C0 1.86917 1.86917 0 4.16667 0C6.46417 0 8.33333 1.86917 8.33333 4.16667C8.33333 7.41167 4.595 10.6008 4.435 10.735C4.3575 10.8008 4.26167 10.8333 4.16667 10.8333ZM4.16667 0.833333C2.32833 0.833333 0.833333 2.32833 0.833333 4.16667C0.833333 6.5575 3.33083 9.07917 4.16667 9.85667C5.0025 9.07917 7.5 6.5575 7.5 4.16667C7.5 2.32833 6.005 0.833333 4.16667 0.833333Z" fill="#101315"/>
<path d="M4.16666 5.83333C3.2475 5.83333 2.5 5.08583 2.5 4.16666C2.5 3.2475 3.2475 2.5 4.16666 2.5C5.08583 2.5 5.83333 3.2475 5.83333 4.16666C5.83333 5.08583 5.08583 5.83333 4.16666 5.83333ZM4.16666 3.33333C3.70666 3.33333 3.33333 3.7075 3.33333 4.16666C3.33333 4.62583 3.70666 4.99999 4.16666 4.99999C4.62666 4.99999 4.99999 4.62583 4.99999 4.16666C4.99999 3.7075 4.62666 3.33333 4.16666 3.33333Z" fill="#101315"/>
<path d="M9.81773 15.5245C9.72273 15.5245 9.6269 15.492 9.5494 15.427L8.2744 14.3537C8.09856 14.2054 8.07606 13.942 8.22356 13.7662C8.37106 13.5895 8.63523 13.5679 8.81106 13.7154L10.0861 14.7887C10.2619 14.937 10.2844 15.2004 10.1369 15.3762C10.0544 15.4737 9.9369 15.5245 9.81773 15.5245ZM7.26773 13.3787C7.17273 13.3787 7.07689 13.3462 6.99939 13.2804L5.7244 12.207C5.54856 12.0587 5.52606 11.7962 5.67356 11.6204C5.82273 11.4437 6.0844 11.4212 6.26106 11.5695L7.53606 12.6429C7.7119 12.7912 7.7344 13.0537 7.5869 13.2295C7.50356 13.3279 7.38606 13.3787 7.26773 13.3787ZM4.71689 11.232C4.62189 11.232 4.52606 11.1995 4.44856 11.1345L3.97439 10.7354C3.79856 10.587 3.77606 10.3245 3.92356 10.1479C4.07189 9.9712 4.3344 9.9487 4.51106 10.097L4.98523 10.4962C5.16106 10.6445 5.18356 10.907 5.03606 11.0837C4.95356 11.1812 4.83606 11.232 4.71689 11.232Z" fill="#101315"/>
<path d="M11.3912 15.1414C11.322 15.1414 11.252 15.1239 11.1878 15.0889C10.987 14.9764 10.9153 14.7231 11.0278 14.5214L11.6595 13.3914C11.772 13.1897 12.0262 13.1189 12.227 13.2314C12.4278 13.3439 12.4995 13.5972 12.387 13.7989L11.7553 14.9289C11.6787 15.0647 11.537 15.1414 11.3912 15.1414ZM12.8353 12.5564C12.7662 12.5564 12.6962 12.5389 12.632 12.5039C12.4312 12.3914 12.3595 12.1381 12.472 11.9372L13.2853 10.4822C13.3978 10.2806 13.6512 10.2089 13.8528 10.3214C14.0545 10.4339 14.1253 10.6872 14.0128 10.8881L13.1995 12.3431C13.1228 12.4797 12.9812 12.5564 12.8353 12.5564ZM14.4612 9.6464C14.392 9.6464 14.322 9.6289 14.2578 9.5939C14.057 9.4814 13.9853 9.22807 14.0978 9.02724L14.9112 7.57224C15.0245 7.36974 15.2778 7.29974 15.4787 7.4114C15.6795 7.5239 15.7512 7.77724 15.6387 7.97807L14.8253 9.43307C14.7487 9.56974 14.607 9.6464 14.4612 9.6464Z" fill="#101315"/>
</svg>

<svg width="20" height="20" fill="none" xmlns="http://www.w3.org/2000/svg"><path d="M17.917 20H4.583A2.086 2.086 0 012.5 17.917v-5a.417.417 0 01.833 0v5c0 .689.561 1.25 1.25 1.25h13.334c.689 0 1.25-.561 1.25-1.25V4.583c0-.689-.561-1.25-1.25-1.25h-7.5a.417.417 0 010-.833h7.5C19.066 2.5 20 3.435 20 4.583v13.334A2.086 2.086 0 0117.917 20z" fill="#101315"/><path d="M15.835 8.333c-.92 0-1.667-.747-1.667-1.666 0-.92.748-1.667 1.667-1.667s1.666.747 1.666 1.667c0 .919-.747 1.666-1.666 1.666zm0-2.5a.834.834 0 10.001 1.669.834.834 0 00-.001-1.669zM10.835 17.5c-.92 0-1.667-.748-1.667-1.667 0-.92.747-1.667 1.667-1.667.919 0 1.666.748 1.666 1.667s-.747 1.666-1.666 1.666zm0-2.5a.834.834 0 10.001 1.668.834.834 0 00-.001-1.669zM4.167 10.833a.414.414 0 01-.269-.098C3.738 10.601 0 7.412 0 4.167A4.171 4.171 0 014.167 0a4.171 4.171 0 014.166 4.167c0 3.245-3.738 6.434-3.898 6.568a.414.414 0 01-.268.098zm0-10A3.337 3.337 0 00.833 4.167c0 2.39 2.498 4.912 3.334 5.69.836-.778 3.333-3.3 3.333-5.69A3.337 3.337 0 004.167.833z" fill="#101315"/><path d="M4.167 5.833c-.92 0-1.667-.747-1.667-1.666 0-.92.748-1.667 1.667-1.667s1.666.748 1.666 1.667-.747 1.666-1.666 1.666zm0-2.5a.834.834 0 10.001 1.669.834.834 0 00-.001-1.669zM9.818 15.524a.418.418 0 01-.269-.097l-1.275-1.073a.417.417 0 01.537-.638l1.275 1.073a.418.418 0 01-.268.736zm-2.55-2.145a.414.414 0 01-.269-.099l-1.275-1.073a.417.417 0 01.537-.638l1.275 1.074a.417.417 0 01-.268.736zm-2.551-2.147a.418.418 0 01-.268-.098l-.475-.399a.418.418 0 01.537-.638l.474.4a.418.418 0 01-.268.735zM11.391 15.141a.417.417 0 01-.363-.62l.631-1.13a.416.416 0 11.728.408l-.632 1.13a.418.418 0 01-.364.212zm1.444-2.585a.416.416 0 01-.363-.62l.813-1.454a.416.416 0 11.728.406l-.813 1.455a.417.417 0 01-.365.213zm1.626-2.91a.416.416 0 01-.363-.62l.813-1.454a.417.417 0 11.728.406l-.814 1.455a.417.417 0 01-.364.213z" fill="#101315"/></svg>
